!!!!SEGMENT: pl-cz--ii-249--001_katski-apolinary--ave-maria.krn
!!!cenid: 18xx:1149
!!!COM: Kątski, Apolinary
!!!COM-rismid: pe30020040
!!!CDT: 1825-1879
!!!CNT: Polish
!!!OTL: Ave Maria
!!!PDT:
!!!AGN: Sacred
!!!SMS-siglum: PL-CZ
!!!SMS-shelfmark: II-249
!!!SMS-shelfwork: 001 W
!!!SMS-variant:
!!!SMS-altvar:
!!!NIFC-rismid: 300001494
!!!URL-scan: http://repozytorium.nifc.pl/skany/pl-cz-nut--ii-249
!!!ONB-nifc:
!!!AIN: 1 cello 2 flt 1 soprn 3 violn
!!!key: F
**kern	**dynam	**kern	**dynam	**kern	**dynam	**kern	**dynam	**kern	**text	**dynam	**kern	**kern	**dynam
*part7	*part7	*part6	*part6	*part5	*part5	*part4	*part4	*part3	*part3	*part3	*part2	*part1	*part1
*staff7	*	*staff6	*	*staff5	*	*staff4	*	*staff3	*staff3	*	*staff2	*staff1	*
*I"Basso.	*	*I"Violino 3cio	*	*I"Violino 2do	*	*I"Violino I	*	*I"Soprano solo	*	*	*I"Flauto II	*I"Flauto 1mo.	*
*I'B.	*	*I'V-no III	*	*I'V-no II	*	*I'V-no I	*	*I'S.	*	*	*I'Fl. II	*I'Fl. I	*
*Icello	*	*Ivioln	*	*Ivioln	*	*Ivioln	*	*Isoprn	*	*	*Iflt	*Iflt	*
*ICstr	*	*ICstr	*	*ICstr	*	*ICstr	*	*ICvox	*	*	*ICww	*ICww	*
*clefF4	*	*clefG2	*	*clefG2	*	*clefG2	*	*clefG2	*	*	*clefG2	*clefG2	*
*Trd0c0	*	*	*	*	*	*	*	*	*	*	*	*	*
*k[b-]	*	*k[b-]	*	*k[b-]	*	*k[b-]	*	*k[b-]	*	*	*k[b-]	*k[b-]	*
*F:	*	*F:	*	*F:	*	*F:	*	*F:	*	*	*F:	*F:	*
*M3/4	*	*M3/4	*	*M3/4	*	*M3/4	*	*M3/4	*	*	*M3/4	*M3/4	*
=1	=1	=1	=1	=1	=1	=1	=1	=1	=1	=1	=1	=1	=1
!LO:TX:a:t=Religioso	!LO:DY:b	!LO:TX:a:t=Religioso	!LO:DY:b:t=f.	!LO:TX:a:t=Religioso	!	!LO:TX:a:t=Religioso.	!	!LO:TX:a:t=8	!	!	!LO:TX:t=P:problem=brak partii, źródło wybrakowane	!LO:TX:a:t=dolce	!LO:DY:a
2F\	f	2c/ 2f	f	2f/ 2a	.	2cc\ 2aa	.	2.r	.	.	2.ryy	2fff\	p
4F\	.	4c/ 4f	.	4f/ 4a	.	4cc\ 4aa	.	.	.	.	.	4fff\	.
=2	=2	=2	=2	=2	=2	=2	=2	=2	=2	=2	=2	=2	=2
2C/	.	2c/ 2e	.	2g\ 2cc	.	2cc\ 2gg	.	2.r	.	.	2.ryy	2eee\	.
4C#X/	.	4c#X/ 4e	.	4g\ 4b-	.	4b-\ 4gg	.	.	.	.	.	4eee\	.
=3	=3	=3	=3	=3	=3	=3	=3	=3	=3	=3	=3	=3	=3
2D\	.	2d/	.	2f/ 2a	.	2a\ 2ff	.	2.r	.	.	2.ryy	2ddd\	.
4Cn\	.	4cn/	.	4f#X/ 4a	.	4a\ 4ff#X	.	.	.	.	.	4eee-X\	.
=4	=4	=4	=4	=4	=4	=4	=4	=4	=4	=4	=4	=4	=4
4BB-/	.	4B-/	.	4B-/ 4g	.	(8b-\L 8gg	.	2.r	.	.	2.ryy	8ddd\L	.
.	.	.	.	.	.	8aa\	.	.	.	.	.	(8aa\	.
4r	.	4r	.	4r	.	8bb-\)	.	.	.	.	.	8bb-\	.
.	.	.	.	.	.	8dd'\	.	.	.	.	.	8dd\)	.
4BB-/	.	4B-/ 4e	.	4B-/ 4g	.	(8cc\ 8aa	.	.	.	.	.	(8aa\	.
.	.	.	.	.	.	8b-\J) 8gg	.	.	.	.	.	8gg\J)	.
=5	=5	=5	=5	=5	=5	=5	=5	=5	=5	=5	=5	=5	=5
2C/	.	4c/ 4f	.	4A/ 4f	.	4a\ 4ff	.	2.r	.	.	2.ryy	4ff\	.
.	.	4r	.	4r	.	(8ee\L	.	.	.	.	.	8ee\L	.
.	.	.	.	.	.	8gg\)	.	.	.	.	.	8gg\	.
4r	.	4r	.	4r	.	8ff'\	.	.	.	.	.	8ff\	.
.	.	.	.	.	.	8dd'\J	.	.	.	.	.	8dd\J	.
!	!	!LO:LB:g=original	!	!	!	!	!	!	!	!	!	!	!
=6	=6	=6	=6	=6	=6	=6	=6	=6	=6	=6	=6	=6	=6
!	!LO:DY:b	!	!	!	!	!	!	!	!	!	!	!	!
2C/	f	2c/ 2e	.	2B-/ 2g	.	(8cc\L	.	2.r	.	.	2.ryy	8ccc\L	<
.	.	.	.	.	.	8cc#X\)	.	.	.	.	.	8ccc#X\	.
.	.	.	.	.	.	8dd'\	.	.	.	.	.	8ddd\	.
.	.	.	.	.	.	8b-'\	.	.	.	.	.	8bb-\	.
4C/	.	4c/ 4e	.	4B-/ 4g	.	(8g\	.	.	.	.	.	8gg\	.
.	.	.	.	.	.	8e\J)	.	.	.	.	.	8ee\J	[[
!	!	!	!	!	!	!LO:LB:g=original	!	!	!	!	!	!LO:LB:g=original	!
=7	=7	=7	=7	=7	=7	=7	=7	=7	=7	=7	=7	=7	=7
8r	.	2.G/ 2.e	.	2.c/ 2.e	.	2.B-/ 2.g	.	2.r	.	.	2.ryy	2.bb-XT\	.
8c\L	.	.	.	.	.	.	.	.	.	.	.	.	.
8B-\	.	.	.	.	.	.	.	.	.	.	.	.	.
8G\	.	.	.	.	.	.	.	.	.	.	.	.	.
8c\	.	.	.	.	.	.	.	.	.	.	.	.	.
8C\J	.	.	.	.	.	.	.	.	.	.	.	.	.
!LO:LB:g=original	!	!	!	!	!	!	!	!	!	!	!	!	!
=8	=8	=8	=8	=8	=8	=8	=8	=8	=8	=8	=8	=8	=8
4F\	.	4A/ 4f	.	4c/ 4e	.	4A/ 4f	.	2.r	.	.	2.ryy	4aa\	.
4FF/ 4F	.	4r	.	4r	.	4r	.	.	.	.	.	4r	.
4r	.	4r	.	4r	.	4r	.	.	.	.	.	4r	.
!	!	!	!	!LO:LB:g=original	!	!	!	!	!	!	!	!	!
=9	=9	=9	=9	=9	=9	=9	=9	=9	=9	=9	=9	=9	=9
!	!	!	!LO:DY:b:t=pp.	!	!LO:DY:b	!	!LO:DY:b	!	!	!	!	!LO:TX:a:t=7	!
4FF/ 4F	.	4f/	pp	2c/	p	2f/	pp	2a/	A-	.	2.ryy	2.r	.
4AA/	.	4A/	.	.	.	.	.	.	.	.	.	.	.
!	!	!	!	!LO:TX:t=P:problem=klamra łukowa	!	!LO:TX:t=P:problem=klamra łukowa	!	!LO:TX:t=P:problem=klamra łukowa	!	!	!	!	!
4C/	.	4B-/	.	6c/	.	6e/	.	(12g/L	-ve	.	.	.	.
.	.	.	.	.	.	.	.	12b-/J)	.	.	.	.	.
.	.	.	.	12B-/	.	12e/	.	12e/	Ma-	.	.	.	.
=10	=10	=10	=10	=10	=10	=10	=10	=10	=10	=10	=10	=10	=10
4FF/ 4F	.	4f/	.	4A/	.	4c/	.	(4f/	-ri-	.	2.ryy	2.r	.
4C/	.	4B-/	.	4c/	.	4e/	.	4g/)	.	.	.	.	.
4F\	.	4A/	.	4c/	.	4f/	.	4a/	-a	.	.	.	.
=11	=11	=11	=11	=11	=11	=11	=11	=11	=11	=11	=11	=11	=11
4A\	.	4A/	.	4c/	.	4f/	.	4cc\	gra-	.	2.ryy	2.r	.
4G\	.	4G/	.	4c/	.	4e/	.	(8cc\L	-ti-	.	.	.	.
.	.	.	.	.	.	.	.	8b-\J)	.	.	.	.	.
4F\	.	4A/	.	4c/	.	4f/	.	(8b-/L	-a	.	.	.	.
.	.	.	.	.	.	.	.	8a/J)	.	.	.	.	.
=12	=12	=12	=12	=12	=12	=12	=12	=12	=12	=12	=12	=12	=12
4C/	.	4A/	.	4c/	.	4f/	.	4a/	ple-	.	2.ryy	2.r	.
*tremolo	*	*	*	*	*	*	*	*	*	*	*	*	*
!LO:TX:t=P:problem=poczwórne staccato	!	!	!	!	!	!	!	!	!	!	!	!	!
8C'/L	.	4G/	.	4c/	.	4e/	.	4g/	-na	.	.	.	.
8C'/	.	.	.	.	.	.	.	.	.	.	.	.	.
8C'/	.	4r	.	4r	.	4r	.	4r	.	.	.	.	.
8C'/J	.	.	.	.	.	.	.	.	.	.	.	.	.
=13	=13	=13	=13	=13	=13	=13	=13	=13	=13	=13	=13	=13	=13
8C/L	.	2B-/	.	2c/	.	2e/	.	2g/	Do-	.	2.ryy	2.r	.
8C/	.	.	.	.	.	.	.	.	.	.	.	.	.
8C/	.	.	.	.	.	.	.	.	.	.	.	.	.
8C/	.	.	.	.	.	.	.	.	.	.	.	.	.
8C/	.	4A/	.	4c/	.	4f/	.	8a/	-mi-	.	.	.	.
8C/J	.	.	.	.	.	.	.	8a/	-nus	.	.	.	.
!	!	!LO:LB:g=original	!	!	!	!	!	!	!	!	!	!	!
=14	=14	=14	=14	=14	=14	=14	=14	=14	=14	=14	=14	=14	=14
8C/L	.	4A/	.	4c/ 4f#X	.	4a/	.	4cc\	te	.	2.ryy	2.r	.
8C/	.	.	.	.	.	.	.	.	.	.	.	.	.
8C/	.	4G/	.	4c/	.	4g/	.	4b-\	cum	.	.	.	.
8C/	.	.	.	.	.	.	.	.	.	.	.	.	.
8C/	.	4G/	.	4c/ 4e	.	4g/	.	8cc\	be-	.	.	.	.
8C/J	.	.	.	.	.	.	.	8g/	-ne-	.	.	.	.
!LO:LB:g=original	!	!	!	!LO:LB:g=original	!	!	!	!LO:LB:g=original	!	!	!	!	!
=15	=15	=15	=15	=15	=15	=15	=15	=15	=15	=15	=15	=15	=15
8BBn/L	.	2.Bn/	.	2.d/	.	2.f/	.	2a-X/	-di-	.	2.ryy	2.r	.
8BBn/	.	.	.	.	.	.	.	.	.	.	.	.	.
8BBn/	.	.	.	.	.	.	.	.	.	.	.	.	.
8BBn/	.	.	.	.	.	.	.	.	.	.	.	.	.
8BBn/	.	.	.	.	.	.	.	4a-/	-cta	.	.	.	.
8BBn/J	.	.	.	.	.	.	.	.	.	.	.	.	.
*Xtremolo	*	*	*	*	*	*	*	*	*	*	*	*	*
!	!	!	!	!	!	!LO:LB:g=original	!	!	!	!	!	!	!
=16	=16	=16	=16	=16	=16	=16	=16	=16	=16	=16	=16	=16	=16
8C/L	.	4c/	.	8c/L	.	8e/L	.	4g/	tu	.	2.ryy	8eee\L	.
8D/	.	.	.	8d/	.	8d/	.	.	.	.	.	8ddd\	.
*	*	*	*	*	*below	*	*	*	*	*	*	*	*
8C/	.	4r	.	8c/	<	8c/	.	4r	.	.	.	8ccc\	.
8BB-/	.	.	.	8B-/	.	8B-/	.	.	.	.	.	8bb-\	.
8AA/	.	4r	.	8A/	.	8A/	.	4r	.	.	.	8aa\	.
8GG/J	.	.	.	8G/J	[[	8G/J	.	.	.	.	.	8gg\J	.
=17	=17	=17	=17	=17	=17	=17	=17	=17	=17	=17	=17	=17	=17
4FF/	.	2c/	.	4f/	p	4f/	.	8an/	be-	.	2.ryy	4ff\	.
.	.	.	.	.	.	.	.	8a/	-ne-	.	.	.	.
4F\	.	.	.	4e/	.	4g/	.	4b-\	-di-	.	.	4gg\	.
4F\	.	4c/	.	4e-X/	.	4a/	.	4cc\	-cta	.	.	4aa\	.
=18	=18	=18	=18	=18	=18	=18	=18	=18	=18	=18	=18	=18	=18
2BB-/	.	4c/	.	4e-X/	.	4a/	.	4cc#X\	tu	.	2.ryy	4aa\	.
.	.	4f/	.	4d/	.	4b-/	.	4dd\	in	.	.	4bb-\	.
4BB-/	.	4G/ 4d	.	4B-/ 4d	.	4B-/ 4g	.	8dd\	mu-	.	.	4gg\	.
.	.	.	.	.	.	.	.	8gg\	-li-	.	.	.	.
=19	=19	=19	=19	=19	=19	=19	=19	=19	=19	=19	=19	=19	=19
2C/	.	4A/	.	4c/ 4f	.	4f/ 4a	.	(4ff\	-e-	.	2.ryy	4aa\	.
.	.	4G/	.	4c/ 4en	.	4g/ 4b-	.	4ee\	.	.	.	4bb-\	.
4C/	.	(8c/L	.	4c/	.	8f/L	.	8dd\)	.	.	.	8ff\L	.
.	.	8B-/J)	.	.	.	8g/J	.	8ee\	-ri-	.	.	8gg\J	.
!	!	!	!	!LO:LB:g=original	!	!	!	!	!	!	!	!LO:LB:g=original	!
=20	=20	=20	=20	=20	=20	=20	=20	=20	=20	=20	=20	=20	=20
4F\	.	4A/	.	4c/ 4f	.	4f/ 4a	.	4ff\	-bus	.	2.ryy	4aa\	.
(8F\L	.	4r	.	4r	.	4r	.	4r	.	.	.	4r	.
8E\	.	.	.	.	.	.	.	.	.	.	.	.	.
8F\	.	4r	.	4r	.	4r	.	4r	.	.	.	4r	.
8E\J)	.	.	.	.	.	.	.	.	.	.	.	.	.
!LO:LB:g=original	!	!LO:LB:g=original	!	!	!	!	!	!	!	!	!	!	!
=21	=21	=21	=21	=21	=21	=21	=21	=21	=21	=21	=21	=21	=21
2F\	.	4A/	.	4e-X/	.	4c/	.	4ee-X\	et	.	2.ryy	4eee-X\	.
.	.	4f/	.	4c/	.	4e-X/	.	4cc\	be-	.	.	4ccc\	.
4r	.	4e-X/	.	4A/	.	4f/	.	4a\	-ne-	.	.	4aa\	.
=22	=22	=22	=22	=22	=22	=22	=22	=22	=22	=22	=22	=22	=22
4.F\	.	4A/	.	4e-X/	.	4c/	.	4cc\	-di-	.	2.ryy	4ccc\	.
.	.	4B-/	.	4d/	.	4d/ 4f	.	4b-\	-ctus	.	.	4bb-\	.
(8E\L	.	.	.	.	.	.	.	.	.	.	.	.	.
8F\	.	4r	.	4r	.	4r	.	4r	.	.	.	4r	.
8E\J)	.	.	.	.	.	.	.	.	.	.	.	.	.
!	!	!	!	!	!	!LO:LB:g=original	!	!	!	!	!	!	!
=23	=23	=23	=23	=23	=23	=23	=23	=23	=23	=23	=23	=23	=23
!	!	!	!	!	!	!	!	!	!	!	!	!LO:TX:a:t=6.	!
*	*	*tremolo	*	*tremolo	*	*tremolo	*	*tremolo	*	*	*	*	*
2.F\	.	(8B-/L	.	(8en/L	.	(8g/L	.	(8b-\L	fru-	.	2.ryy	2.r	.
.	.	8c/	.	8c/	.	8c/	.	8b-\)	.	.	.	.	.
.	.	8B-/	.	8e/	.	8g/	.	(8b-\	-ctus	.	.	.	.
.	.	8c/	.	8c/	.	8c/	.	8cc\)	.	.	.	.	.
.	.	8B-/	.	8e/	.	8g/	.	8cc\	ven-	.	.	.	.
.	.	8c/J)	.	8c/J)	.	8c/J)	.	8cc\J	-tris	.	.	.	.
*	*	*Xtremolo	*	*Xtremolo	*	*Xtremolo	*	*	*	*	*	*	*
!	!	!	!	!	!	!	!	!LO:LB:g=original	!	!	!	!	!
=24	=24	=24	=24	=24	=24	=24	=24	=24	=24	=24	=24	=24	=24
*tremolo	*	*	*	*	*	*	*	*	*	*	*	*	*
(8F\L	.	4B-/	.	4e/	.	4g/	.	4b-\	tu-	.	2.ryy	2.r	.
8E\	.	.	.	.	.	.	.	.	.	.	.	.	.
8F\	.	4A/	.	4f/	.	4a/	.	4a\	-i	.	.	.	.
8E\	.	.	.	.	.	.	.	.	.	.	.	.	.
8F\	.	4r	.	4r	.	4r	.	4r	.	.	.	.	.
8E\J)	.	.	.	.	.	.	.	.	.	.	.	.	.
=25	=25	=25	=25	=25	=25	=25	=25	=25	=25	=25	=25	=25	=25
[2.F\	.	(4c/	.	4e-X/	.	4f/	.	(4a\	Je-	.	2.ryy	2.r	.
.	.	4A/	.	4c/	.	4e-X/	.	4ee-X\	.	.	.	.	.
.	.	4c/)	.	4e-/	.	4f/	.	4a\)	.	.	.	.	.
=26	=26	=26	=26	=26	=26	=26	=26	=26	=26	=26	=26	=26	=26
*Xtremolo	*	*	*	*	*	*	*	*	*	*	*	*	*
8F\L]	.	(4.B-/	.	4.d/	.	4.f/	.	(>4.b-/	-sus	.	2.ryy	2.r	.
8E\J	.	.	.	.	.	.	.	.	.	.	.	.	.
2F\	.	.	.	.	.	.	.	.	.	.	.	.	.
.	.	8c/L	.	8c/L	.	(8e/L	.	8a/L	.	.	.	.	.
.	.	8d/	.	8B-/	.	8d/	.	8g/	.	.	.	.	.
.	.	8e/J)	.	8A/J	.	8c/J)	.	8f/J)	.	.	.	.	.
!	!	!LO:LB:g=original	!	!	!	!	!	!	!	!	!	!	!
=27	=27	=27	=27	=27	=27	=27	=27	=27	=27	=27	=27	=27	=27
2.C/	.	2.c/	.	8r	.	8r	.	2.e/	Je-	.	2.ryy	2.r	.
.	.	.	.	8G/L	.	8B-/L	.	.	.	.	.	.	.
.	.	.	.	8A/	.	8c/	.	.	.	.	.	.	.
.	.	.	.	8B-/	.	8d-X/	.	.	.	.	.	.	.
.	.	.	.	8A/	.	8c/	.	.	.	.	.	.	.
.	.	.	.	8G/J	.	8B-/J	.	.	.	.	.	.	.
!LO:LB:g=original	!	!	!	!	!	!	!	!	!	!	!	!	!
=28	=28	=28	=28	=28	=28	=28	=28	=28	=28	=28	=28	=28	=28
4F\	.	4c/	.	4A/	.	4f/	.	4f/	-sus	.	2.ryy	2.r	.
4r	.	4r	.	4r	.	4r	.	4r	.	.	.	.	.
4r	.	4c/	.	4f/	.	4f/	.	4r	.	.	.	.	.
=29	=29	=29	=29	=29	=29	=29	=29	=29	=29	=29	=29	=29	=29
!	!LO:DY:b	!	!	!	!	!	!LO:DY:b	!	!	!LO:DY:b	!	!	!
4BB-/	f	4f/	.	4B-/ 4d	f	4f/	ff	4f/	San-	ff	2.ryy	4ff\	.
4BB-/	.	4d/	.	4B-/ 4d	.	4f/	.	4b-\	-cta	.	.	4bb-\	.
4BB-/	.	4B-/	.	4B-/ 4d	.	4f/	.	4dd\	Ma-	.	.	4ddd\	.
=30	=30	=30	=30	=30	=30	=30	=30	=30	=30	=30	=30	=30	=30
4.C/	.	4c/	.	4A/ 4f	.	4f/	.	(8.ee-X\L	-ri-	.	2.ryy	8.eee-X\L	.
.	.	.	.	.	.	.	.	16cc\Jk)	.	.	.	16ccc\Jk	.
.	.	4r	.	4r	.	4r	.	4a/	-a	.	.	4aa\	.
8c\L	.	.	.	.	.	.	.	.	.	.	.	.	.
8A\	.	4r	.	4r	.	4r	.	4r	.	.	.	4r	.
8F\J	.	.	.	.	.	.	.	.	.	.	.	.	.
!	!	!	!	!LO:LB:g=original	!	!LO:LB:g=original	!	!	!	!	!	!LO:LB:g=original	!
=31	=31	=31	=31	=31	=31	=31	=31	=31	=31	=31	=31	=31	=31
2E-X\	.	4f/	.	4c/	.	4A/ 4f	.	(4f/	Ma-	.	2.ryy	4ff\	.
.	.	4e-X/	.	4c/	.	4A/ 4f	.	4a/)	.	.	.	4aa\	.
4E-\	.	4c/	.	4c/	.	4A/ 4f	.	4cc\	-ter	.	.	4ccc\	.
=32	=32	=32	=32	=32	=32	=32	=32	=32	=32	=32	=32	=32	=32
4.D\	.	4B-/	.	4B-/ 4d	.	4B-/ 4f	.	(8.ff\L	De-	.	2.ryy	8.fff\L	.
.	.	.	.	.	.	.	.	16dd\Jk)	.	.	.	16ddd\Jk	.
.	.	4B-/	.	4B-/ 4d	.	4B-/ 4f	.	4b-\	-i	.	.	4bb-\	.
8BB-\L	.	.	.	.	.	.	.	.	.	.	.	.	.
8D\	.	4r	.	4r	.	4r	.	4r	.	.	.	4r	.
8F\J	.	.	.	.	.	.	.	.	.	.	.	.	.
!	!	!	!	!	!	!	!	!LO:LB:g=original	!	!	!	!	!
=33	=33	=33	=33	=33	=33	=33	=33	=33	=33	=33	=33	=33	=33
!	!	!	!	!	!	!	!	!	!	!	!	!LO:TX:a:t=8	!
4F\	.	(8f/L	.	2c/ 2e-X	.	2A/ 2f	.	(8bn\L	o-	.	2.ryy	2.r	.
.	.	8e-X/	.	.	.	.	.	8cc\J)	.	.	.	.	.
4F\	.	8c/	.	.	.	.	.	(8dd\L	-ra	.	.	.	.
.	.	8e-/	.	.	.	.	.	8cc\J)	.	.	.	.	.
4F\	.	8d/)	.	4c/ 4e-	.	4A/ 4f	.	(8a/L	pro	.	.	.	.
.	.	8c/J	.	.	.	.	.	8f/J)	.	.	.	.	.
!LO:LB:g=original	!	!LO:LB:g=original	!	!	!	!	!	!	!	!	!	!	!
=34	=34	=34	=34	=34	=34	=34	=34	=34	=34	=34	=34	=34	=34
8BB-/L	.	4B-/	.	8B-/L	.	8d/L	.	2b-\	no-	.	2.ryy	2.r	.
8D/	.	.	.	8d/	.	8f/	.	.	.	.	.	.	.
8E-X/	.	4r	.	8e-X/	.	8g/	.	.	.	.	.	.	.
8D/	.	.	.	8d/	.	8f/	.	.	.	.	.	.	.
8C/	.	4r	.	8c/	.	8e-X/	.	(8a/L	-bis	.	.	.	.
8BB-/J	.	.	.	8B-/J	.	8d/J	.	8b-/J)	.	.	.	.	.
=35	=35	=35	=35	=35	=35	=35	=35	=35	=35	=35	=35	=35	=35
4FF/ 4F	.	2B-/	.	2c/	.	2f/ 2b-	.	(8ee-X\L	pec-	.	2.ryy	2.r	.
.	.	.	.	.	.	.	.	8dd\J)	.	.	.	.	.
4F\	.	.	.	.	.	.	.	(8ee-\L	-ca-	.	.	.	.
.	.	.	.	.	.	.	.	8gg\J)	.	.	.	.	.
4F\	.	4e-X/	.	4c/	.	4f/ 4a	.	(8ff\L	-to-	.	.	.	.
.	.	.	.	.	.	.	.	8cc\J)	.	.	.	.	.
=36	=36	=36	=36	=36	=36	=36	=36	=36	=36	=36	=36	=36	=36
4.BB-/	.	4e-X/	.	4c/	.	4f/ 4a	.	4ee-X\	-ri-	.	2.ryy	2.r	.
.	.	4d/	.	4B-/ 4f	.	4f/ 4b-	.	4dd\	-bus	.	.	.	.
8BB-\L	.	.	.	.	.	.	.	.	.	.	.	.	.
8D\	.	4r	.	4r	.	4r	.	4r	.	.	.	.	.
8F\J	.	.	.	.	.	.	.	.	.	.	.	.	.
!	!	!	!	!LO:LB:g=original	!	!	!	!	!	!	!	!	!
=37	=37	=37	=37	=37	=37	=37	=37	=37	=37	=37	=37	=37	=37
4En\	.	4G/ 4en	.	4c/	.	4g/ 4b-	.	(8cc\L	nunc	.	2.ryy	2.r	.
.	.	.	.	.	.	.	.	8dd\J)	.	.	.	.	.
4E\	.	4G/ 4e	.	4c/	.	4g/ 4b-	.	(8cc\L	et	.	.	.	.
.	.	.	.	.	.	.	.	8dd\J)	.	.	.	.	.
4E\	.	4G/ 4e	.	4c/	.	4g/ 4b-	.	(8cc\L	in	.	.	.	.
.	.	.	.	.	.	.	.	8dd\J)	.	.	.	.	.
!	!	!	!	!	!	!LO:LB:g=original	!	!	!	!	!	!	!
=38	=38	=38	=38	=38	=38	=38	=38	=38	=38	=38	=38	=38	=38
4F\	.	4f/	.	2c/	.	2f/ 2a	.	2cc\	ho-	.	2.ryy	2.r	.
4F\	.	4A/	.	.	.	.	.	.	.	.	.	.	.
4E\	.	4B-/	.	4c/	.	4g/	.	4cc\	-ra	.	.	.	.
!LO:LB:g=original	!	!	!	!	!	!	!	!	!	!	!	!	!
=39	=39	=39	=39	=39	=39	=39	=39	=39	=39	=39	=39	=39	=39
4D\	.	(2A/	.	2c/ 2f	.	2f/ 2a	.	(4ff\	mor-	.	2.ryy	2.r	.
4D\	.	.	.	.	.	.	.	4a\)	.	.	.	.	.
4G\	.	4G/)	.	4d/ 4f	.	4g/	.	4bn\	-tis	.	.	.	.
=40	=40	=40	=40	=40	=40	=40	=40	=40	=40	=40	=40	=40	=40
4C/	.	2G/	.	2c/	.	2en/	.	(2cc\	no-	.	2.ryy	2.r	.
4C/	.	.	.	.	.	.	.	.	.	.	.	.	.
4r	.	4Bn/	.	4d/	.	4f/	.	4bn\)	.	.	.	.	.
!	!	!LO:LB:g=original	!	!	!	!	!	!LO:LB:g=original	!	!	!	!	!
=41	=41	=41	=41	=41	=41	=41	=41	=41	=41	=41	=41	=41	=41
!	!LO:DY:b	!	!	!	!	!	!LO:DY:b:t=for	!	!	!	!	!	!
4C^>/	f	4c/	.	4G/ 4en	.	4g/	f	2b-\	-strae	.	2.ryy	4gg\	.
4r	.	4r	.	4r	.	8b-\L	.	.	.	.	.	8bb-\L	.
.	.	.	.	.	.	8cc\	.	.	.	.	.	8ccc\	.
4r	.	4r	.	4r	.	8een\	.	4r	.	.	.	8eeen\	.
.	.	.	.	.	.	8gg\J	.	.	.	.	.	8ggg\J	.
=42	=42	=42	=42	=42	=42	=42	=42	=42	=42	=42	=42	=42	=42
!LO:TX:a:t=2	!	!LO:TX:a:t=2.	!	!LO:TX:a:t=2	!	!	!	!LO:TX:a:t=2	!	!	!	!	!LO:DY:a
2.r	.	2.r	.	2.r	.	8bb-\L	.	2.r	.	.	2.ryy	8bb-\L	p
.	.	.	.	.	.	8aa\	.	.	.	.	.	8aa\	.
.	.	.	.	.	.	8gg\	.	.	.	.	.	8gg\	.
.	.	.	.	.	.	8ff\	.	.	.	.	.	8ff\	.
.	.	.	.	.	.	8een\	.	.	.	.	.	8ee\	.
.	.	.	.	.	.	8dd\J	.	.	.	.	.	8dd\J	.
!	!	!	!	!	!	!	!	!	!	!	!	!LO:LB:g=original	!
=43	=43	=43	=43	=43	=43	=43	=43	=43	=43	=43	=43	=43	=43
2.r	.	2.r	.	2.r	.	8cc\L	.	2.r	.	.	2.ryy	8ccc\L	.
.	.	.	.	.	.	8cc#X\	.	.	.	.	.	8ccc#X\	.
.	.	.	.	.	.	8een\	.	.	.	.	.	8eee\	.
.	.	.	.	.	.	8dd\	.	.	.	.	.	8ddd\	.
.	.	.	.	.	.	8b-\	.	.	.	.	.	8bb-\	.
.	.	.	.	.	.	8g\J	.	.	.	.	.	8gg\J	.
!	!	!	!	!	!	!LO:LB:g=original	!	!	!	!	!	!	!
=44	=44	=44	=44	=44	=44	=44	=44	=44	=44	=44	=44	=44	=44
!	!	!	!	!	!	!	!LO:DY:b	!	!	!	!	!	!
4FF/ 4F	.	2A/	.	2c/	p	2f/	p	2a/	A-	.	2.ryy	2ff\	.
4AA/	.	.	.	.	.	.	.	.	.	.	.	.	.
!	!	!	!	!LO:TX:t=P:problem=klamra łukowa	!	!LO:TX:t=P:problem=klamra łukowa	!	!LO:TX:t=P:problem=klamra łukowa	!	!	!	!	!
4C/	.	4G/	.	6c/	.	6e/	.	(12g/L	-ve	.	.	4r	.
.	.	.	.	.	.	.	.	12b-/J)	.	.	.	.	.
.	.	.	.	12B-/	.	12e/	.	12e/	Ma-	.	.	.	.
!	!	!	!	!LO:LB:g=original	!	!	!	!	!	!	!	!	!
=45	=45	=45	=45	=45	=45	=45	=45	=45	=45	=45	=45	=45	=45
!	!	!	!	!	!	!	!	!	!	!	!	!LO:TX:a:t=6	!
4F\	.	4c/	.	4A/	.	4f/	.	(4f/	-ri-	.	2.ryy	2.r	.
4C\	.	4B-/	.	4c/	.	4e/	.	4g/)	.	.	.	.	.
4F\	.	4A/	.	4c/	.	4f/	.	4a/	-a	.	.	.	.
!LO:LB:g=original	!	!	!	!	!	!	!	!	!	!	!	!	!
=46	=46	=46	=46	=46	=46	=46	=46	=46	=46	=46	=46	=46	=46
4A\	.	4A/	.	4c/	.	4f/	.	4cc\	gra-	.	2.ryy	2.r	.
4G\	.	4B-/	.	4c/	.	4e/	.	(8cc\L	-ti-	.	.	.	.
.	.	.	.	.	.	.	.	8b-\J)	.	.	.	.	.
4F\	.	4A/	.	4c/	.	4f/	.	(8b-/L	-a	.	.	.	.
.	.	.	.	.	.	.	.	8a/J)	.	.	.	.	.
=47	=47	=47	=47	=47	=47	=47	=47	=47	=47	=47	=47	=47	=47
4C/	.	4A/	.	4c/	.	4f/	.	4a/	ple-	.	2.ryy	2.r	.
*tremolo	*	*	*	*	*	*	*	*	*	*	*	*	*
8C/L	.	4G/	.	4c/	.	4e/	.	4g/	-na	.	.	.	.
8C/	.	.	.	.	.	.	.	.	.	.	.	.	.
8C/	.	4r	.	4r	.	4r	.	4r	.	.	.	.	.
8C/J	.	.	.	.	.	.	.	.	.	.	.	.	.
=48	=48	=48	=48	=48	=48	=48	=48	=48	=48	=48	=48	=48	=48
8C/L	.	2B-/	.	2c/	.	2e/	.	2g/	Do-	.	2.ryy	2.r	.
8C/	.	.	.	.	.	.	.	.	.	.	.	.	.
8C/	.	.	.	.	.	.	.	.	.	.	.	.	.
8C/	.	.	.	.	.	.	.	.	.	.	.	.	.
8C/	.	4c/	.	4c/	.	4f/	.	8a/	-mi-	.	.	.	.
8C/J	.	.	.	.	.	.	.	8a/	-nus	.	.	.	.
!	!	!LO:LB:g=original	!	!	!	!	!	!	!	!	!	!	!
=49	=49	=49	=49	=49	=49	=49	=49	=49	=49	=49	=49	=49	=49
8C/L	.	4A/	.	4c/	.	4f#X/ 4a	.	4cc\	te	.	2.ryy	2.r	.
8C/	.	.	.	.	.	.	.	.	.	.	.	.	.
8C/	.	4G/	.	4c/	.	4g/	.	4b-\	cum	.	.	.	.
8C/	.	.	.	.	.	.	.	.	.	.	.	.	.
8C/	.	4G/	.	4c/	.	4g/	.	8cc\	be-	.	.	.	.
8C/J	.	.	.	.	.	.	.	8g/	-ne-	.	.	.	.
=50	=50	=50	=50	=50	=50	=50	=50	=50	=50	=50	=50	=50	=50
8BBn/L	.	2.Bn/	.	2.d/	.	2.f/	.	2a-X/	-di-	.	2.ryy	2.r	.
8BBn/	.	.	.	.	.	.	.	.	.	.	.	.	.
8BBn/	.	.	.	.	.	.	.	.	.	.	.	.	.
8BBn/	.	.	.	.	.	.	.	.	.	.	.	.	.
8BBn/	.	.	.	.	.	.	.	4a-/	-cta	.	.	.	.
8BBn/J	.	.	.	.	.	.	.	.	.	.	.	.	.
*Xtremolo	*	*	*	*	*	*	*	*	*	*	*	*	*
!	!	!	!	!LO:LB:g=original	!	!	!	!LO:LB:g=original	!	!	!	!	!
=51	=51	=51	=51	=51	=51	=51	=51	=51	=51	=51	=51	=51	=51
8C/L	.	4c/	.	8c/L	.	8e/L	.	4g/	tu	.	2.ryy	(8eee\L	.
8D/	.	.	.	8d/	.	8d/	.	.	.	.	.	8ddd'\	.
8C/	.	4r	.	8c/	.	8c/	.	4r	.	.	.	8ccc'\	.
8BB-/	.	.	.	8B-/	.	8B-/	.	.	.	.	.	8bb-'\	.
8AA/	.	4r	.	8A/	.	8A/	.	4r	.	.	.	8aa'\	.
8GG/J	.	.	.	8G/J	.	8G/J	.	.	.	.	.	8gg'\J)	.
!	!	!	!	!	!	!LO:LB:g=original	!	!	!	!	!	!	!
=52	=52	=52	=52	=52	=52	=52	=52	=52	=52	=52	=52	=52	=52
4FF/	.	2c/	.	4A/	.	4f/	.	8a/	be-	.	2.ryy	4ff\	.
.	.	.	.	.	.	.	.	8a/	-ne-	.	.	.	.
4F\	.	.	.	4e/	.	4g/	.	4b-\	-di-	.	.	4r	.
4F\	.	4c/	.	4e-X/	.	4a/	.	4cc\	-cta	.	.	4r	.
!LO:LB:g=original	!	!	!	!	!	!	!	!	!	!	!	!LO:LB:g=original	!
=53	=53	=53	=53	=53	=53	=53	=53	=53	=53	=53	=53	=53	=53
!	!	!	!	!	!	!	!	!	!	!	!	!LO:TX:a:t=12	!
2BB-/	.	4c/	.	4e-X/	.	4a/	.	4cc#X\	tu	.	2.ryy	2.r	.
.	.	4f/	.	4d/	.	4b-/	.	4dd\	in	.	.	.	.
4BB-/	.	4G/ 4d	.	4B-/ 4d	.	4g/	.	8dd\	mu-	.	.	.	.
.	.	.	.	.	.	.	.	8gg\	-li-	.	.	.	.
=54	=54	=54	=54	=54	=54	=54	=54	=54	=54	=54	=54	=54	=54
2C/	.	4A/	.	4c/ 4f	.	4a/	.	(4ff\	-e-	.	2.ryy	2.r	.
.	.	4G/	.	4c/ 4en	.	4b-/	.	4ee\	.	.	.	.	.
4C/	.	(8c/L	.	4r	.	8f/L	.	8dd\)	.	.	.	.	.
.	.	8B-/J)	.	.	.	8g/J	.	8ee\	-ri-	.	.	.	.
=55	=55	=55	=55	=55	=55	=55	=55	=55	=55	=55	=55	=55	=55
4F\	.	4A/	.	4f/	.	4f/ 4a	.	4ff\	-bus	.	2.ryy	2.r	.
*tremolo	*	*tremolo	*	*tremolo	*	*	*	*	*	*	*	*	*
(8F\L	.	(8f/L	.	(8f/L	.	4r	.	4r	.	.	.	.	.
8E\	.	8e/	.	8e/	.	.	.	.	.	.	.	.	.
8F\	.	8f/	.	8f/	.	4r	.	4r	.	.	.	.	.
8E\J)	.	8e/J)	.	8e/J)	.	.	.	.	.	.	.	.	.
*	*	*Xtremolo	*	*Xtremolo	*	*	*	*	*	*	*	*	*
!	!	!LO:LB:g=original	!	!LO:LB:g=original	!	!	!	!	!	!	!	!	!
=56	=56	=56	=56	=56	=56	=56	=56	=56	=56	=56	=56	=56	=56
2F\	.	4A/	.	2f/	.	4c/	.	4ee-X\	et	.	2.ryy	2.r	.
.	.	4f/	.	.	.	4e-X/	.	4cc\	be-	.	.	.	.
4r	.	4e-X/	.	4r	.	4f/	.	4a/	-ne-	.	.	.	.
=57	=57	=57	=57	=57	=57	=57	=57	=57	=57	=57	=57	=57	=57
4.F\	.	4d/	.	4.f/	.	4d/	.	4cc\	-di-	.	2.ryy	2.r	.
.	.	4r	.	.	.	4B-/ 4f	.	4b-\	-ctus	.	.	.	.
*Xtremolo	*	*	*	*	*	*	*	*	*	*	*	*	*
8E\L	.	.	.	(8e/L	.	.	.	.	.	.	.	.	.
8F\	.	4r	.	8f/	.	4r	.	4r	.	.	.	.	.
8E\J	.	.	.	8e/J)	.	.	.	.	.	.	.	.	.
=58	=58	=58	=58	=58	=58	=58	=58	=58	=58	=58	=58	=58	=58
*	*	*	*	*tremolo	*	*tremolo	*	*	*	*	*	*	*
2.F\	.	4c/ 4e	.	(8e/L	.	(8f/L	.	(8b-\L	fru-	.	2.ryy	2.r	.
.	.	.	.	8c/	.	8c/	.	8cc\J)	.	.	.	.	.
.	.	4c/ 4e	.	8e/	.	8f/	.	(8b-\L	-ctus	.	.	.	.
.	.	.	.	8c/	.	8c/	.	8cc\J)	.	.	.	.	.
.	.	4c/ 4e	.	8e/	.	8f/	.	8b-\	ven-	.	.	.	.
.	.	.	.	8c/J)	.	8c/J)	.	8cc\	-tris	.	.	.	.
*	*	*	*	*	*	*Xtremolo	*	*	*	*	*	*	*
!	!	!	!	!	!	!LO:LB:g=original	!	!	!	!	!	!	!
=59	=59	=59	=59	=59	=59	=59	=59	=59	=59	=59	=59	=59	=59
!	!	!LO:TX:t=P:pion:problem	!	!	!	!	!	!	!	!	!	!	!
*tremolo	*	*	*	*	*	*	*	*	*	*	*	*	*
(8F\L	.	2.ryy	.	(8f/L	.	4c/ 4g	.	4b-\	tu-	.	2.ryy	2.r	.
8E\	.	.	.	8e/	.	.	.	.	.	.	.	.	.
8F\	.	.	.	8f/	.	4A/ 4f	.	4a/	-i	.	.	.	.
8E\	.	.	.	8e/	.	.	.	.	.	.	.	.	.
8F\	.	.	.	8f/	.	4r	.	4r	.	.	.	.	.
8E\J)	.	.	.	8e/J)	.	.	.	.	.	.	.	.	.
*	*	*	*	*Xtremolo	*	*	*	*	*	*	*	*	*
!LO:LB:g=original	!	!	!	!	!	!	!	!LO:LB:g=original	!	!	!	!	!
=60	=60	=60	=60	=60	=60	=60	=60	=60	=60	=60	=60	=60	=60
!	!	!	!	!	!	!	!LO:DY:b	!	!	!	!	!	!
2.F\	.	2.ryy	.	4e-X/	.	4f/	f	(4a/	Je-	.	2.ryy	2.r	.
.	.	.	.	4c/	.	4e-X/	.	4ee-X\	.	.	.	.	.
.	.	.	.	4e-/	.	4f/	.	4a/)	.	.	.	.	.
=61	=61	=61	=61	=61	=61	=61	=61	=61	=61	=61	=61	=61	=61
8F\L	.	2.ryy	.	4.d/	.	4.f/	.	(>4.b-/	-sus	.	2.ryy	2.r	.
8E\J	.	.	.	.	.	.	.	.	.	.	.	.	.
2F\	.	.	.	.	.	.	.	.	.	.	.	.	.
.	.	.	.	(8c/L	.	(8en/L	.	8a/L	.	.	.	.	.
.	.	.	.	8B-/	.	8d/	.	8g/	.	.	.	.	.
.	.	.	.	8A/J)	.	8c/J)	.	8f/J)	.	.	.	.	.
!	!	!	!	!LO:LB:g=original	!	!	!	!	!	!	!	!	!
=62	=62	=62	=62	=62	=62	=62	=62	=62	=62	=62	=62	=62	=62
2.C/	.	2.ryy	.	8r	.	8r	.	2.e/	Je-	.	2.ryy	2.r	.
.	.	.	.	8G/L	.	8B-/L	.	.	.	.	.	.	.
.	.	.	.	8A/	.	8c/	.	.	.	.	.	.	.
.	.	.	.	8B-X/	.	8d-X/	.	.	.	.	.	.	.
.	.	.	.	8A/	.	8c/	.	.	.	.	.	.	.
.	.	.	.	8G/J	.	8B-/J	.	.	.	.	.	.	.
=63	=63	=63	=63	=63	=63	=63	=63	=63	=63	=63	=63	=63	=63
4F\	.	4c/ 4f	.	4A/ 4f	.	4A/	.	4f/	-sus	.	2.ryy	2.r	.
*	*	*tremolo	*	*	*	*	*	*	*	*	*	*	*
4r	.	(8f/L	.	4r	.	4f/	.	4r	.	.	.	.	.
.	.	8e/	.	.	.	.	.	.	.	.	.	.	.
4r	.	8f/	.	4r	.	4f/	.	4r	.	.	.	.	.
.	.	8e/J)	.	.	.	.	.	.	.	.	.	.	.
*	*	*Xtremolo	*	*	*	*	*	*	*	*	*	*	*
!	!	!	!	!	!	!LO:LB:g=original	!	!	!	!	!	!	!
=64	=64	=64	=64	=64	=64	=64	=64	=64	=64	=64	=64	=64	=64
4D-X\	.	2.f^/	.	2.d-X^>/	.	2.A-X/ 2.f	.	2.f/	A-	.	2.ryy	2.r	.
4D-\	.	.	.	.	.	.	.	.	.	.	.	.	.
4D-\	.	.	.	.	.	.	.	.	.	.	.	.	.
=65	=65	=65	=65	=65	=65	=65	=65	=65	=65	=65	=65	=65	=65
8F\L	.	4e-X/	.	4c/	.	4An/ 4f	.	4f/	-men	.	2.ryy	4ff\	.
8E\	.	.	.	.	.	.	.	.	.	.	.	.	.
8F\	.	4A/	.	4c/	.	4f/ 4a	.	4r	.	.	.	4aa\	.
8E\	.	.	.	.	.	.	.	.	.	.	.	.	.
8F\	.	4c/	.	4f/	.	4a\ 4cc	.	4r	.	.	.	4ccc\	.
8A\J	.	.	.	.	.	.	.	.	.	.	.	.	.
=66	=66	=66	=66	=66	=66	=66	=66	=66	=66	=66	=66	=66	=66
2F\	.	4B-/	.	4d/	.	4f/ 4b-	.	2.f/	A-	.	2.ryy	4bb-\	.
.	.	4A/	.	4c/	.	4f/ 4a	.	.	.	.	.	4aa\	.
4F\	.	4G#X/	.	4f/	.	4Bn/ 4g#X	.	.	.	.	.	4gg#X\	.
!LO:LB:g=original	!	!LO:LB:g=original	!	!	!	!	!	!	!	!	!	!	!
=67	=67	=67	=67	=67	=67	=67	=67	=67	=67	=67	=67	=67	=67
!	!	!	!	!	!	!	!LO:DY:b	!	!	!	!	!	!
2F\	.	4c/	.	8f/L	.	8a/L	f	2ff\	-men.	.	2.ryy	8ff\	.
.	.	.	.	8c/	.	8c/	.	.	.	.	.	8r	.
.	.	(8B-/L	.	8d/	.	8f/	.	.	.	.	.	8dd\	.
.	.	8c/	.	8c/	.	8c/	.	.	.	.	.	8r	.
4F\	.	8B-/	.	8e/	.	8g/	.	4r	.	.	.	8ee\	.
.	.	8c/J)	.	8c/J	.	8c/J	.	.	.	.	.	8r	.
!	!	!	!	!LO:LB:g=original	!	!LO:LB:g=original	!	!	!	!	!	!	!
=68	=68	=68	=68	=68	=68	=68	=68	=68	=68	=68	=68	=68	=68
!	!	!	!	!	!	!	!	!LO:TX:a:t=3	!	!	!	!	!
2F\	.	4c/	.	8f/L	.	8a/L	.	2.r	.	.	2.ryy	8ff\	.
.	.	.	.	8c/	.	8c/	.	.	.	.	.	8r	.
.	.	(8B-/L	.	8d/	.	8f/	.	.	.	.	.	8dd\	.
.	.	8c/	.	8c/	.	8c/	.	.	.	.	.	8r	.
4F\	.	8B-/	.	8e/	.	8g/	.	.	.	.	.	8ee\	.
.	.	8c/J)	.	8c/J	.	8c/J	.	.	.	.	.	8r	.
!	!	!	!	!	!	!	!	!	!	!	!	!LO:LB:g=original	!
=69	=69	=69	=69	=69	=69	=69	=69	=69	=69	=69	=69	=69	=69
4F\	.	8A/L	.	4c/ 4f	.	4f/ 4a	.	2.r	.	.	2.ryy	4ff\	.
.	.	8f/	.	.	.	.	.	.	.	.	.	.	.
4C/	.	8e/	.	4c/ 4f	.	4f/ 4a	.	.	.	.	.	4aa\	.
.	.	8f/	.	.	.	.	.	.	.	.	.	.	.
4AA/	.	8c/	.	4c/ 4f	.	4f/ 4a	.	.	.	.	.	4aa\	.
.	.	8A/J	.	.	.	.	.	.	.	.	.	.	.
=70	=70	=70	=70	=70	=70	=70	=70	=70	=70	=70	=70	=70	=70
4FF/ 4F	.	4A/	.	4c/ 4f	.	4f/ 4a	.	2.r	.	.	2.ryy	4aa\	.
4r	.	4r	.	4r	.	4r	.	.	.	.	.	4r	.
!	!	!LO:TX:a:t=Fine	!	!	!	!	!	!	!	!	!	!	!
4r	.	4r	.	4r	.	4r	.	.	.	.	.	4r	.
==;	==	==	==	==;	==	==	==	==	==	==	==	==;	==
*-	*-	*-	*-	*-	*-	*-	*-	*-	*-	*-	*-	*-	*-
!!!RDF**kern: > = above
!!!system-decoration: [(s1,s2)][(s3)][(s4,s5,s6,s7)]
!!!ENC: Andrzej Gręziak
!!!END: 2020-11-08
!!!ENC: Urszula Świątek
!!!END: 2022-02-25
